X:1
T:Eterno foco vivo
T:Giammateo Asola 
T:Source : Madrigali a due voci---Venetia---G.Vincenti---1587. Editor : André Vierendeels (17/04/17).
T:Notes : Original clefs C1, F4 (Fuga di un tempo, una ottava piu basso) Original note values have been halved Editorial accidentals above the staff  
T:Eterno foco vivo
T:©
T:©
T:©
C:Giammateo Asola
C:
Z:©
%%score [ 1 2 ]
L:1/8
Q:1/4=120
M:6/4
K:F
V:1 treble nm="Soprano" snm="S"
V:2 bass nm="Bass" snm="B"
V:1
 d2 d2 d2 A3 G AB | c3 B A2 G4 F2 | G4 z2 B2 B2 c2 | dc BA G2 F2 G4 | A2 B2 B2 c2 d4 | %5
w: E- ter- no fo- * * *|* co vi- * *|vo, de- sta con|le _ _ _ _ tue fiam-|me, un' al- to del|
 c2 FG AF G2 A2 A2 | G3 F F2 G2 z2 A2 | B2 B2 AA d4 c2 | d4 z2 A2 A2 A2 | c3 B A2 G2 c4 | %10
w: tuo'a- * * * * mor in- cen-|di- o di- vo, ond'|o- gni cor s'in- fiam- *|me, l'o- dio sia|po- * * st'in ban-|
 B2 G2 AA B4 A2 | F3 G AB c3 B A2 | G4 z2 d2 d2 c2 | B2 AG A2 G4 F2 | G2 B2 A2 G2 FG AF | %15
w: do, nou va- dan l'al- me|er- * * * ran- * *|do, con tor- ti|af- fet- * * * *|ti e'n ma- r'en ter- * * *|
 G2 A4 B2 c4 | B2 A2 G2 d2 c2 B2 | A3 G/F/ G2 A4 z2 | c2 A2 F2 c3 B A2 | G4 F2 G2 B2 A2 | %20
w: * ra e'n ciel|d'a- mor s'o- da can- ta-|* * * * re,|d'a- mor s'o- da can- ta-|* * re, s'o- da|
 G2 FG AF G2 A4 |"^#" G4 F2 G6 |] %22
w: can- ta- * * * * *|* * re.|
V:2
 z6 D,2 D,2 D,2 | A,,3 G,, A,,B,, C,3 B,, A,,2 | G,,4 F,,2 G,,4 z2 | %3
w: E- ter- no|fo- * * * * co vi-|* * vo,|
 B,,2 B,,2 C,2 D,C, B,,A,, G,,2 | F,,2 G,,4 A,,2 B,,2 B,,2 | C,2 D,4 C,2 F,,G,, A,,F,, | %6
w: de- sta con le _ _ _ _|tue fiam- me, un' al-|to del tuo'a- * * * *|
 G,,2 A,,2 A,,2 G,,3 F,, F,,2 | G,,2 z2 A,,2 B,,2 B,,2 A,,A,, | D,4 C,2 D,4 z2 | %9
w: mor in- cen di- o di-|vo, ond' o- gni cor s'in-|fiam- * me,|
 A,,2 A,,2 A,,2 C,3 B,, A,,2 | G,,2 C,4 B,,2 G,,2 A,,A,, | B,,4 A,,2 F,,3 G,, A,,B,, | %12
w: l'o- dio sia po- * *|st'in ban- do, nou va- dan|l'al- me er- * * *|
 C,3 B,, A,,2 G,,4 z2 | D,2 D,2 C,2 B,,2 A,,G,, A,,2 | G,,4 F,,2 G,,2 B,,2 A,,2 | %15
w: ran- * * do,|con tor- ti af- fet- * *|* * ti e'n ma-|
 G,,2 F,,G,, A,,F,, G,,2 A,,4 | B,,2 C,4 B,,2 A,,2 G,,2 | D,2 C,2 B,,2 A,,3 G,,/F,,/ G,,2 | %18
w: r'en ter- * * * * ra|e'n ciel d'a- mor s'o-|da can- ta- * * * *|
 A,,4 z2 C,2 A,,2 F,,2 | C,3 B,, A,,2 G,,4 F,,2 | G,,2 B,,2 A,,2 G,,2 F,,G,, A,,F,, | %21
w: re, d'a- mor s'o-|da can- ta- * *|re, s'o- da can- ta- * * *|
 G,,2 A,,4 G,,6 |] %22
w: * * re.|

